svgs/light/calendar-circle-plus.svg

<svg xmlns="http://www.w3.org/2000/svg" viewBox="0 0 576 512"><!--! Font Awesome Pro 6.6.0 by @fontawesome - https://fontawesome.com License - https://fontawesome.com/license (Commercial License) Copyright 2024 Fonticons, Inc. --><path d="M128 16c0-8.8-7.2-16-16-16s-16 7.2-16 16l0 48L64 64C28.7 64 0 92.7 0 128l0 32 0 32L0 448c0 35.3 28.7 64 64 64l266.8 0c-12.9-9.1-24.5-19.9-34.6-32L64 480c-17.7 0-32-14.3-32-32l0-256 320 0 64 0 16 0 16 0 0-32 0-32c0-35.3-28.7-64-64-64l-32 0 0-48c0-8.8-7.2-16-16-16s-16 7.2-16 16l0 48L128 64l0-48zM64 96l320 0c17.7 0 32 14.3 32 32l0 32L32 160l0-32c0-17.7 14.3-32 32-32zM320 368a112 112 0 1 1 224 0 112 112 0 1 1 -224 0zm256 0a144 144 0 1 0 -288 0 144 144 0 1 0 288 0zM448 304c0-8.8-7.2-16-16-16s-16 7.2-16 16l0 48-48 0c-8.8 0-16 7.2-16 16s7.2 16 16 16l48 0 0 48c0 8.8 7.2 16 16 16s16-7.2 16-16l0-48 48 0c8.8 0 16-7.2 16-16s-7.2-16-16-16l-48 0 0-48z"/></svg>

<svg xmlns="http://www.w3.org/2000/svg" viewBox="0 0 576 512"><!--! Font Awesome Pro 6.4.0 by @fontawesome - https://fontawesome.com License - https://fontawesome.com/license (Commercial License) Copyright 2023 Fonticons, Inc. --><path d="M128 16c0-8.8-7.2-16-16-16s-16 7.2-16 16V64H64C28.7 64 0 92.7 0 128v32 32V448c0 35.3 28.7 64 64 64H330.8c-12.9-9.1-24.5-19.9-34.6-32H64c-17.7 0-32-14.3-32-32V192H352h64 16 16V160 128c0-35.3-28.7-64-64-64H352V16c0-8.8-7.2-16-16-16s-16 7.2-16 16V64H128V16zM64 96H384c17.7 0 32 14.3 32 32v32H32V128c0-17.7 14.3-32 32-32zM320 368a112 112 0 1 1 224 0 112 112 0 1 1 -224 0zm256 0a144 144 0 1 0 -288 0 144 144 0 1 0 288 0zM448 304c0-8.8-7.2-16-16-16s-16 7.2-16 16v48H368c-8.8 0-16 7.2-16 16s7.2 16 16 16h48v48c0 8.8 7.2 16 16 16s16-7.2 16-16V384h48c8.8 0 16-7.2 16-16s-7.2-16-16-16H448V304z"/></svg>
